assets/bank-tab/Asset/Personal Loan.svg

<svg width="24" height="24" viewBox="0 0 24 24" fill="none" xmlns="http://www.w3.org/2000/svg">
<path fill-rule="evenodd" clip-rule="evenodd" d="M4.61412 7.57876C3.51668 8.47695 3.25518 9.68397 2.73218 12.098C2.4128 13.5722 2.21907 14.9949 2.1266 16.4865C1.92235 19.781 1.82022 21.4282 3.00518 22.7141C4.19015 24 6.02314 24 9.68911 24H14.2707C17.9702 24 19.82 24 21.0058 22.7071C22.1916 21.4141 22.0807 19.7498 21.8587 16.4211C21.7641 15.002 21.5767 13.6246 21.2684 12.1741C20.746 9.71612 20.4848 8.48714 19.3856 7.58386C18.2864 6.68057 16.8733 6.68057 14.0471 6.68057H9.91146C7.11153 6.68057 5.71156 6.68057 4.61412 7.57876ZM12.0107 17.8873C13.0827 17.8873 13.9518 16.975 13.9518 15.8497C13.9518 14.7244 13.0827 13.8121 12.0107 13.8121C10.9387 13.8121 10.0696 14.7244 10.0696 15.8497C10.0696 16.975 10.9387 17.8873 12.0107 17.8873Z" fill="#8F242A"/>
<path d="M7.70743 2.29179C7.93089 3.14521 8.22154 3.94816 8.68504 4.87859C8.87015 5.25016 8.9627 5.43595 9.14324 5.54886C9.32377 5.66178 9.53997 5.66178 9.97237 5.66178H14.0827C14.5009 5.66178 14.71 5.66178 14.8881 5.55301C15.0662 5.44424 15.1578 5.26947 15.341 4.91993C15.8123 4.02092 16.1048 3.20433 16.3333 2.29063C16.4688 1.74922 16.5365 1.4785 16.5018 1.30631C16.4194 0.897885 15.9888 0.619475 15.591 0.71742C15.4232 0.758712 15.1977 0.94808 14.7467 1.32681C14.5511 1.49111 14.4533 1.57326 14.3544 1.61638C14.1171 1.71992 13.8442 1.69184 13.632 1.54203C13.5436 1.47965 13.4639 1.37922 13.3045 1.17838L13.0797 0.895204C12.6337 0.333469 12.4107 0.0525981 12.1224 0.00847445C12.0485 -0.00282482 11.9734 -0.00282482 11.8996 0.00847445C11.6112 0.0525982 11.3882 0.333467 10.9423 0.895205L10.7144 1.1823C10.5578 1.37949 10.4796 1.47808 10.3931 1.53977C10.1794 1.69231 9.90329 1.72073 9.66396 1.61481C9.56718 1.57198 9.47113 1.49132 9.27904 1.33001C8.83621 0.95814 8.61479 0.772203 8.44971 0.73045C8.0472 0.628643 7.60827 0.915942 7.53185 1.33123C7.5005 1.50155 7.56948 1.76496 7.70743 2.29179Z" fill="#8F242A"/>
</svg>

<svg xmlns="http://www.w3.org/2000/svg" width="24" height="24" fill="none" viewBox="0 0 24 24"><path fill="#8f242a" fill-rule="evenodd" d="M4.614 7.579c-1.097.898-1.359 2.105-1.882 4.519a29 29 0 0 0-.605 4.388c-.205 3.295-.307 4.942.878 6.228S6.023 24 9.69 24h4.582c3.7 0 5.549 0 6.735-1.293s1.075-2.957.853-6.286a29.6 29.6 0 0 0-.59-4.247c-.523-2.458-.784-3.687-1.883-4.59-1.1-.903-2.513-.903-5.339-.903H9.911c-2.8 0-4.2 0-5.297.898m7.397 10.308c1.072 0 1.94-.912 1.94-2.037s-.868-2.038-1.94-2.038-1.941.912-1.941 2.038.869 2.037 1.94 2.037" clip-rule="evenodd"/><path fill="#8f242a" d="M7.707 2.292c.224.853.515 1.656.978 2.587.185.371.278.557.458.67s.397.113.83.113h4.11c.418 0 .627 0 .805-.109s.27-.284.453-.633a11.4 11.4 0 0 0 .992-2.63c.136-.54.204-.812.169-.984-.083-.408-.513-.687-.911-.589-.168.042-.393.231-.844.61-.196.164-.294.246-.393.29a.74.74 0 0 1-.722-.075c-.088-.062-.168-.163-.327-.364L13.08.895c-.446-.562-.67-.842-.958-.887a.7.7 0 0 0-.222 0c-.289.045-.512.325-.958.887l-.228.287c-.156.197-.234.296-.32.358a.74.74 0 0 1-.73.075c-.097-.043-.193-.124-.385-.285-.443-.372-.664-.558-.83-.6-.402-.101-.84.186-.917.601-.032.17.037.434.175.96"/></svg>
